X:53
T:All Well. LIT.053
M:2/4
Q:1/4=140
L:1/8
B:Wm. Litten MS, 1802
Z:Village Music Project 2017 Anne Wride
K:G
g2 dB | e2 cA | Bd cB | A/G/F/E/ D2 | g2 dB | e2cA | Bd d/c/B/A/ | G2 G2 :|
|: Bd Bd | ec c2 | Ac Ac | Bd d2 | GB Bc | Bd gc | BG AF | G2 G2 :|

